P2
# rolling64 size=64 hills=30 sigma=[3.0,8.0] noise=4.0 seed=12
64 64
255
13 16 19 20 16 23 22 22 22 14 22 16 15 15 15 13 14 17 11 22 25 30 37 47 53 63 79 78 70 64 62 55 46 35 27 23 12 11 6 3 3 7 2 10 3 16 13 12 25 29 29 28 23 23 21 22 16 12 20 6 6 3 0 0
12 21 23 28 28 34 28 29 31 34 32 22 18 12 9 10 15 11 14 20 28 33 53 52 65 76 87 79 82 84 80 66 58 44 32 23 23 11 8 15 13 5 6 14 12 21 22 19 27 30 25 28 25 29 32 33 20 26 15 14 5 6 5 1
18 23 26 34 39 35 40 45 45 25 34 34 31 20 13 13 15 13 17 18 29 46 52 63 82 84 94 104 98 89 82 72 62 63 44 32 22 17 16 15 8 4 13 6 19 22 16 31 36 39 35 41 43 49 37 34 32 23 19 16 16 5 1 8
21 38 37 37 37 45 53 54 46 43 41 37 31 29 26 22 22 23 17 24 34 44 60 63 75 92 108 106 105 108 97 89 81 67 54 43 34 27 16 16 14 19 13 25 21 26 34 45 41 47 44 48 51 54 45 46 42 31 28 24 11 9 13 7
23 34 41 48 52 50 58 58 55 60 49 35 36 27 27 17 18 20 19 26 38 46 54 65 82 95 105 109 119 117 113 110 91 79 57 54 36 31 34 21 20 11 14 22 30 32 46 43 53 63 58 55 67 68 61 52 45 41 38 26 24 21 15 8
28 42 53 50 52 61 59 60 64 62 51 55 48 30 34 24 22 20 29 25 31 44 51 68 79 90 113 118 120 122 119 114 99 84 70 58 48 39 26 23 14 14 21 27 32 36 43 49 58 63 73 77 78 73 70 62 54 45 34 36 24 18 12 8
34 36 54 56 65 69 77 79 74 67 52 50 54 46 30 20 14 18 22 20 24 43 51 66 81 90 101 109 128 117 124 117 101 88 72 67 46 37 28 33 24 22 31 36 39 50 53 62 72 81 82 91 81 81 82 67 68 55 44 39 26 28 11 15
40 49 50 65 71 75 73 74 74 68 58 57 47 40 33 38 21 23 20 25 25 30 47 55 64 90 103 115 117 120 118 119 103 90 72 73 49 39 33 28 31 34 31 33 40 56 62 67 82 91 92 103 99 87 86 80 73 56 49 37 27 20 11 9
41 58 59 65 73 87 81 83 77 67 65 60 50 51 42 20 28 18 15 17 14 36 44 57 67 88 92 107 115 118 114 113 102 91 78 66 52 50 41 35 40 39 40 49 50 57 65 69 83 89 100 106 107 93 94 88 75 60 52 43 31 25 20 16
46 52 64 74 83 73 74 83 80 79 66 55 52 44 40 29 20 15 22 14 31 38 44 40 60 69 78 100 107 102 105 113 94 88 68 67 59 50 48 48 41 43 46 54 55 62 79 73 79 102 96 113 94 108 100 78 74 65 50 38 30 20 17 8
44 63 70 70 78 81 83 79 81 79 71 57 43 45 26 27 21 23 23 23 26 31 43 50 52 65 77 81 93 93 97 98 86 76 76 63 55 53 51 47 45 45 57 56 66 73 74 94 93 98 111 106 113 100 98 88 76 52 52 40 34 28 19 15
50 64 61 72 78 76 76 79 79 73 63 58 45 34 32 32 23 23 21 22 27 41 35 47 51 66 74 75 86 72 89 82 84 73 64 51 58 59 58 53 55 60 60 63 78 74 78 84 95 98 97 108 102 103 94 75 72 65 54 36 30 17 21 5
45 50 66 65 77 68 80 66 69 59 60 56 48 36 33 22 28 18 18 29 25 38 39 52 55 62 60 68 69 71 63 71 70 59 56 58 56 56 63 62 65 70 65 72 71 76 80 83 92 94 90 97 101 99 87 85 72 52 47 44 24 25 19 3
58 57 59 68 70 76 77 67 68 61 50 54 40 39 37 22 19 22 31 37 40 48 48 52 55 57 61 57 49 59 66 58 58 47 55 57 57 61 66 67 72 70 74 82 84 81 81 94 91 99 95 102 98 94 79 75 66 57 50 38 27 23 11 7
55 58 66 69 67 66 65 64 67 57 53 46 37 32 22 28 37 29 39 34 39 56 59 66 66 61 61 54 59 48 42 47 52 56 50 52 60 66 72 78 80 90 88 92 84 96 82 93 86 94 97 100 95 88 83 72 63 48 48 34 21 14 12 10
52 53 59 57 60 62 57 60 50 50 39 41 34 33 20 31 35 36 35 45 47 63 75 80 75 68 59 53 46 43 50 42 43 45 45 58 59 62 78 84 95 93 97 101 102 94 89 85 91 94 93 88 85 89 81 68 61 52 46 32 26 15 7 9
52 55 58 60 64 54 51 54 52 43 46 34 37 33 27 27 35 44 46 53 71 80 80 78 82 70 63 60 47 52 26 42 43 44 49 56 67 83 92 106 110 115 112 104 104 98 102 98 96 91 93 84 89 85 79 69 59 51 40 27 20 16 11 7
48 55 53 56 58 54 52 53 44 44 33 34 32 30 33 37 30 33 53 62 75 93 89 92 95 75 66 57 42 37 34 36 35 44 50 55 83 85 102 116 124 127 128 132 122 110 105 103 92 91 98 80 75 83 72 58 50 45 37 22 20 18 6 11
43 50 44 46 48 53 45 44 36 37 37 36 28 34 38 39 34 44 54 65 75 82 87 92 78 70 67 51 49 37 43 36 35 47 53 63 74 93 113 126 140 151 144 142 133 130 118 105 95 97 91 90 86 83 67 67 52 47 34 26 23 20 6 10
46 43 44 44 45 45 45 33 40 32 41 33 43 39 41 47 47 45 55 64 65 78 84 83 82 68 67 54 42 44 42 36 43 45 68 68 87 107 124 145 156 162 161 159 141 133 124 110 99 102 96 90 88 72 72 69 52 49 37 27 19 13 6 7
33 38 46 42 42 43 36 47 38 47 41 39 38 36 43 48 46 48 57 68 73 81 76 83 69 72 58 51 55 46 42 38 46 49 61 81 91 117 137 144 162 173 169 165 165 142 128 113 116 103 98 94 86 88 68 66 51 41 34 28 23 13 18 6
38 41 42 36 35 32 34 37 34 45 35 43 44 43 47 52 61 52 62 69 74 71 75 80 79 65 59 55 56 46 52 48 55 65 76 76 90 124 139 155 174 182 181 176 159 140 137 124 114 111 97 97 91 87 84 62 57 42 38 31 20 13 8 1
28 33 34 32 35 32 38 36 36 38 46 42 55 50 57 57 60 66 74 68 70 76 76 77 71 60 60 58 51 49 52 55 60 70 77 83 104 125 135 161 166 173 178 177 165 145 134 130 123 114 113 101 95 82 75 67 52 43 35 28 18 19 10 3
29 26 25 29 33 38 35 43 35 44 51 49 60 67 66 65 70 69 80 89 82 76 76 76 78 68 68 62 60 58 59 58 67 67 76 89 108 118 139 158 161 176 174 173 166 158 138 131 123 119 105 100 87 80 74 67 55 38 37 27 20 14 7 1
23 23 21 33 25 38 34 39 34 44 50 60 58 66 71 74 83 88 90 81 92 91 90 81 80 67 68 67 58 65 63 73 67 76 86 100 109 124 141 157 158 161 165 168 164 151 139 126 123 118 114 99 92 82 70 62 54 47 40 21 19 15 14 2
16 20 23 24 31 39 37 48 44 55 57 71 76 85 80 78 92 90 92 93 97 96 92 91 85 80 72 71 68 72 71 71 77 79 84 97 105 122 139 154 162 164 159 166 163 145 138 134 132 119 107 95 92 82 72 66 53 41 36 28 20 15 16 5
16 20 23 23 29 41 39 60 52 59 61 76 73 80 99 93 94 94 99 105 105 98 98 91 88 89 77 68 73 72 73 73 78 84 93 104 111 122 132 139 145 155 153 152 148 140 134 136 124 113 111 110 96 85 75 63 55 43 35 26 29 8 14 13
14 22 23 27 33 37 45 39 59 64 73 81 90 91 107 107 111 111 114 114 116 99 95 106 98 86 87 92 79 79 85 82 81 90 96 95 110 112 125 133 144 150 157 153 143 136 140 129 130 121 115 100 101 91 72 59 54 37 28 21 16 22 7 13
14 17 21 23 30 37 49 59 63 68 84 90 92 103 110 126 116 120 129 126 118 116 103 99 100 99 91 87 79 79 84 80 87 91 101 107 113 123 128 128 137 143 148 149 154 145 136 135 132 121 112 111 94 85 72 63 44 47 35 26 20 10 15 7
13 23 20 28 38 50 53 56 76 82 95 95 109 109 126 132 130 131 130 124 126 119 113 114 101 98 90 90 82 91 84 83 87 94 98 103 114 121 129 130 141 140 153 147 155 154 152 151 145 133 126 109 95 84 76 62 52 39 38 28 16 13 10 10
16 25 30 36 39 46 64 71 71 93 99 110 119 125 130 139 142 138 134 136 134 129 119 119 109 95 96 85 89 90 84 83 89 89 99 103 110 116 130 131 145 142 154 156 160 167 153 151 145 139 125 119 102 88 70 63 59 37 35 26 21 24 15 7
20 25 33 36 46 51 65 76 88 97 108 118 128 142 144 153 153 159 154 134 135 131 119 113 107 105 98 87 94 82 83 81 80 86 99 105 107 111 122 131 145 151 158 169 166 170 178 176 161 156 140 122 111 92 84 73 51 45 45 38 32 24 24 12
23 24 40 43 51 66 75 87 99 108 117 124 139 142 155 164 157 157 156 158 142 136 129 116 113 109 100 93 80 87 84 82 82 89 91 107 104 112 124 134 142 152 162 176 178 188 189 192 170 167 148 133 108 107 80 73 59 51 47 37 30 23 15 18
20 27 36 37 61 66 85 94 103 110 124 141 144 157 164 168 177 162 164 159 146 143 142 125 107 100 89 91 86 76 81 81 91 86 93 98 100 115 127 125 135 167 166 189 186 206 206 201 203 182 166 152 126 105 86 79 73 56 48 44 34 27 25 20
25 36 39 57 64 73 75 106 111 126 143 150 155 168 174 181 174 171 173 162 159 144 130 123 103 99 92 83 73 82 80 70 76 79 80 100 100 100 119 130 149 153 181 199 210 214 218 220 209 199 186 157 140 114 101 87 69 61 51 50 33 35 34 31
27 31 41 52 64 76 81 101 117 128 142 161 174 179 191 194 196 186 182 174 164 151 138 126 120 98 89 77 87 66 71 70 74 80 81 88 103 107 109 129 142 169 176 203 213 227 232 231 224 206 193 171 143 131 102 92 77 78 67 50 51 46 42 32
25 35 45 57 67 83 95 112 125 144 161 165 179 191 193 211 201 212 195 184 174 157 141 124 113 110 97 80 79 72 69 75 75 84 84 88 97 110 114 124 141 162 175 204 217 224 229 239 230 223 201 173 144 129 117 101 90 81 72 61 61 55 51 42
31 36 48 63 79 92 102 114 123 150 159 170 190 204 210 216 210 209 208 188 182 164 148 128 103 101 93 88 74 69 67 76 65 76 77 87 87 100 113 120 149 163 187 198 216 231 237 240 223 222 198 176 167 139 123 113 91 89 77 78 72 63 57 52
30 37 49 63 67 83 99 117 130 144 177 179 199 206 228 231 227 225 223 197 185 173 148 129 118 108 90 82 76 78 72 69 74 75 74 87 86 96 111 125 144 148 175 187 206 221 231 230 232 213 205 179 165 145 138 116 109 105 89 86 84 81 73 67
32 43 50 64 75 94 107 123 142 153 171 189 208 224 235 237 242 232 221 211 194 182 152 142 115 101 100 85 78 83 75 68 68 84 75 86 96 97 111 123 136 152 178 176 205 217 224 218 221 210 200 186 169 151 127 131 119 110 100 93 92 87 92 81
31 40 49 64 75 91 110 124 143 153 176 205 214 229 244 243 241 244 231 219 201 183 159 148 132 106 102 92 83 76 78 77 76 81 81 87 102 97 107 130 131 146 168 180 193 205 207 212 209 197 193 180 162 150 144 133 120 115 113 109 103 102 103 88
34 46 56 71 77 98 113 118 146 166 180 190 205 224 242 252 255 248 235 221 210 187 160 145 127 113 106 91 89 86 88 83 81 82 86 91 102 112 115 124 132 144 161 173 181 196 198 200 195 192 178 167 160 163 152 130 130 119 124 118 121 109 100 96
40 51 55 70 82 99 105 120 142 152 169 197 210 222 234 252 255 249 251 225 215 187 167 151 130 117 106 101 99 88 91 90 86 96 95 103 104 113 122 125 139 146 155 165 177 184 189 183 180 175 183 177 161 153 151 139 138 131 117 127 121 116 108 104
44 50 64 75 88 95 104 142 135 152 172 196 220 225 241 253 255 251 240 226 214 197 174 159 141 125 117 105 107 90 104 89 93 98 101 114 118 123 127 131 139 149 161 164 168 167 166 172 167 170 166 158 148 142 144 137 134 134 117 117 112 113 114 99
45 58 78 90 90 118 124 128 136 154 174 197 201 215 234 241 254 245 243 226 212 194 174 162 142 125 117 115 111 107 102 99 105 112 115 118 121 124 133 137 143 145 155 158 166 166 161 166 164 158 158 152 147 143 143 139 133 130 129 125 115 111 118 94
60 73 84 102 107 115 132 126 139 153 170 179 202 214 231 232 233 230 241 217 217 195 169 153 141 132 117 118 113 109 107 108 112 109 128 130 136 131 147 147 147 149 150 155 152 147 159 155 158 149 149 142 143 142 135 136 131 125 120 117 111 109 98 97
74 84 93 111 118 127 143 148 147 161 163 176 194 202 217 221 234 231 223 217 198 189 171 156 141 127 124 119 123 118 119 115 125 125 130 137 128 143 150 151 157 156 153 146 154 143 150 143 143 148 139 141 128 132 132 124 123 115 119 111 113 99 96 88
86 108 107 125 132 144 143 143 153 159 159 164 178 187 209 214 220 211 212 206 191 177 168 156 136 127 122 119 127 120 121 130 124 131 134 140 144 147 151 156 157 155 152 146 137 133 140 134 133 137 126 133 135 127 124 119 130 116 113 105 103 96 86 75
92 106 120 138 151 148 145 146 151 146 147 155 175 176 188 190 200 194 200 197 178 164 157 147 131 122 119 119 114 118 117 118 128 131 133 140 140 146 158 157 153 150 146 135 137 134 127 127 129 123 122 122 125 117 116 115 114 103 101 98 96 84 78 71
102 115 137 133 145 151 151 159 148 146 142 145 158 158 177 171 179 176 187 179 172 148 149 138 117 123 117 103 104 109 122 125 128 138 142 140 146 148 148 148 145 140 136 135 133 127 124 117 114 113 111 113 116 110 111 104 107 102 96 95 88 83 79 67
100 121 128 146 155 146 148 144 138 133 134 135 140 139 154 154 167 167 162 157 156 139 138 126 118 118 105 107 103 112 113 109 121 118 138 130 141 149 146 142 140 133 135 136 122 117 105 112 109 106 106 115 105 104 115 107 98 93 92 84 75 73 65 58
85 107 133 133 143 140 142 131 136 124 127 119 118 130 130 131 137 144 140 134 141 124 120 110 106 94 104 103 109 103 109 117 116 122 126 141 138 137 139 139 131 132 121 117 109 101 105 100 99 99 106 99 99 101 103 93 96 87 78 76 72 76 65 60
87 103 110 129 123 129 135 130 122 120 114 106 109 107 117 129 120 121 127 126 119 114 114 105 104 100 95 92 97 101 104 108 111 122 124 125 128 131 133 127 122 110 116 98 106 96 88 101 92 98 91 96 99 99 91 100 88 84 77 67 64 57 57 51
69 87 95 111 112 120 122 115 115 105 106 103 91 92 102 105 105 109 108 101 101 102 97 90 93 91 97 93 87 95 101 98 103 109 116 123 117 119 115 123 110 105 98 95 90 88 88 93 82 94 95 95 102 93 97 93 86 81 73 75 61 56 67 48
56 59 74 91 86 104 103 100 103 98 83 79 86 75 81 83 87 92 82 105 103 93 89 86 85 88 80 87 90 89 92 105 100 103 111 103 108 113 108 104 99 99 91 89 92 80 83 82 81 88 93 90 92 102 89 99 90 83 73 71 62 54 54 50
43 44 63 68 78 83 90 102 91 81 73 65 67 68 70 64 65 79 75 86 83 82 74 75 77 77 85 88 88 92 98 91 102 96 98 99 111 99 102 93 92 84 84 74 71 78 71 75 83 94 92 96 99 98 95 85 91 81 79 70 67 61 50 48
31 33 53 56 74 84 78 88 74 78 69 62 59 57 50 57 62 63 59 67 59 65 77 78 83 86 81 79 77 95 89 97 97 96 95 86 95 89 87 88 90 75 68 67 65 61 60 80 87 86 91 86 101 107 105 88 87 85 81 65 63 55 61 52
22 26 36 52 67 66 65 77 81 70 57 60 57 50 40 48 52 53 58 66 65 79 69 70 78 79 75 81 81 81 92 84 89 87 83 95 88 86 78 81 70 66 64 58 58 60 59 72 69 91 84 93 94 99 92 97 89 83 76 71 63 57 57 51
20 18 29 30 43 54 65 67 66 62 54 42 37 38 41 42 35 45 48 47 54 61 61 64 63 74 71 74 84 89 85 82 88 86 90 82 85 73 72 73 66 61 56 54 55 53 63 60 70 75 85 93 89 96 96 93 88 90 70 64 66 57 53 42
11 8 25 25 36 38 50 54 57 52 40 43 40 37 32 28 43 42 41 45 50 50 60 58 55 79 74 79 82 87 84 90 86 78 81 81 83 78 60 57 59 46 50 55 46 59 56 60 68 85 74 93 91 91 96 86 91 75 61 63 61 54 56 42
4 2 13 18 26 31 39 43 48 34 40 30 23 30 23 25 23 38 36 44 44 47 54 53 67 64 71 85 79 80 85 81 85 88 77 78 68 56 67 53 54 54 54 38 45 48 47 59 66 68 75 82 84 80 88 79 78 69 68 70 55 47 54 43
0 2 11 10 16 24 30 27 19 28 20 21 18 19 18 19 25 32 29 37 41 49 49 55 66 61 67 76 75 78 74 76 81 81 75 71 66 65 53 50 47 46 41 35 38 34 43 47 58 62 67 74 77 77 76 79 74 59 60 60 49 48 42 34
0 5 9 5 8 17 16 22 19 10 16 16 11 15 10 18 22 29 26 30 38 35 44 56 58 72 72 66 72 81 76 72 75 69 73 62 59 64 58 42 39 34 34 26 30 38 34 50 46 57 62 70 67 78 67 70 58 59 53 50 52 36 42 37
0 0 8 6 6 10 11 10 15 16 13 15 16 6 11 18 21 9 19 24 31 39 42 48 55 59 66 56 69 77 68 70 69 73 64 70 66 53 43 46 34 36 33 28 27 30 34 43 45 47 50 55 55 65 56 61 50 40 34 40 33 37 31 30
