P2
# rugged64 size=64 hills=120 sigma=[1.5,4.0] noise=12.0 seed=13
64 64
255
52 77 79 71 49 45 10 0 6 0 18 0 10 6 0 5 11 53 88 69 75 72 76 59 38 35 55 41 40 50 21 39 47 33 23 25 55 53 35 36 37 22 20 23 31 37 38 39 41 35 49 70 85 69 103 96 99 78 72 62 62 43 29 7
71 102 99 104 81 48 45 24 0 0 13 3 17 16 42 30 62 53 79 113 107 125 112 78 49 75 62 56 66 56 62 60 28 33 61 52 59 48 83 40 41 24 23 57 61 77 64 66 62 71 86 46 61 74 99 115 124 89 102 61 73 58 38 25
83 103 118 115 70 56 29 0 8 0 16 10 9 4 12 53 50 85 113 121 147 142 116 81 84 91 88 67 77 52 40 60 37 41 63 55 99 46 76 55 36 77 45 64 60 72 86 91 54 69 99 69 55 77 115 137 114 115 115 105 91 74 66 45
63 99 96 93 70 51 39 13 2 4 16 0 16 18 47 67 80 85 99 135 159 131 128 117 122 99 101 79 97 67 85 76 55 40 34 62 63 53 57 50 57 29 50 65 100 106 106 92 86 87 57 64 78 82 108 124 128 136 113 117 122 97 84 61
40 81 58 59 78 55 30 10 0 8 15 37 20 40 67 75 107 89 139 132 153 143 128 133 131 130 112 139 95 105 71 91 72 56 61 76 48 24 48 34 43 45 70 71 85 116 112 100 92 83 93 79 73 100 115 110 124 141 124 122 127 126 107 91
33 43 49 48 47 37 39 22 19 0 0 23 23 31 76 83 92 119 123 116 140 136 131 150 152 143 132 118 83 93 69 54 64 69 31 31 19 21 20 49 53 53 92 107 105 123 121 94 95 65 80 52 85 72 105 110 91 108 122 120 140 133 107 89
2 38 49 55 23 30 59 22 3 15 28 18 29 56 63 103 111 128 126 120 112 112 166 146 165 173 169 162 118 81 78 63 50 53 46 37 36 20 43 56 49 85 80 91 110 111 102 107 128 92 71 79 69 70 80 84 103 109 103 88 111 121 101 63
33 57 33 38 35 39 61 18 22 24 15 33 24 69 74 96 116 129 108 129 122 153 143 164 141 152 154 134 129 93 89 74 61 54 44 38 48 59 35 59 56 50 62 85 109 111 127 99 137 78 80 74 56 53 75 71 64 76 86 64 77 85 55 66
18 22 53 41 65 29 69 37 22 33 13 45 49 71 81 90 116 138 99 117 106 126 148 165 151 167 169 111 130 64 68 56 62 50 59 49 50 56 54 84 66 63 70 69 86 121 112 108 86 86 70 78 56 59 55 49 72 52 71 65 53 56 63 35
7 50 51 62 56 64 52 23 54 51 31 27 42 44 64 89 96 96 108 100 96 99 114 139 156 151 149 110 110 92 84 38 32 52 56 56 93 90 106 74 80 75 90 70 92 116 110 104 80 61 65 47 52 33 62 60 73 36 32 60 41 39 28 41
33 43 36 89 61 73 78 75 61 55 58 30 55 52 68 71 68 106 107 77 90 120 106 140 157 153 134 123 96 85 74 71 69 46 91 99 103 133 136 120 102 74 80 57 82 77 102 108 83 85 89 58 40 53 72 61 72 57 58 61 52 24 13 14
9 49 33 53 42 46 74 72 70 77 71 62 48 51 64 67 70 70 71 95 89 102 88 100 116 120 109 94 110 78 80 64 38 60 72 96 117 129 158 120 96 37 61 60 69 73 102 66 72 103 64 86 91 86 90 95 75 67 89 61 29 6 3 2
37 37 42 35 49 54 115 83 93 103 55 81 67 59 69 61 50 61 56 55 65 53 60 82 109 85 114 89 79 117 73 87 65 65 51 84 115 121 139 117 87 54 62 103 61 61 87 98 87 79 79 96 106 95 109 134 115 119 79 53 43 36 32 4
10 38 35 42 37 56 62 58 85 117 102 77 80 55 64 46 80 52 42 42 53 59 83 84 112 115 97 115 112 91 112 92 46 40 74 59 106 124 114 75 59 64 42 57 64 62 83 62 99 92 79 86 99 113 155 149 133 124 95 91 51 32 44 25
29 22 18 52 41 70 75 105 85 96 110 87 70 74 82 58 57 57 73 53 64 71 83 92 109 84 89 86 94 76 85 57 41 53 57 48 60 64 49 79 66 48 68 68 78 97 94 83 82 93 96 94 144 128 150 199 188 134 122 87 77 31 32 33
6 5 40 0 44 34 64 78 86 105 118 113 105 93 92 74 85 57 49 38 67 44 59 86 107 105 102 112 106 69 61 62 69 30 55 39 50 42 50 42 63 49 56 77 96 106 104 92 104 109 94 115 119 152 185 203 212 169 152 90 78 50 33 9
0 30 10 31 32 37 57 72 116 84 77 85 104 102 93 73 65 45 26 60 66 57 70 98 100 107 105 108 95 74 65 58 40 40 53 56 31 39 51 6 48 54 53 80 99 106 108 83 107 73 107 115 151 138 164 210 225 177 150 78 71 69 14 12
0 11 18 28 25 26 45 66 43 81 88 70 100 89 80 79 71 47 65 72 65 62 85 80 104 114 94 106 81 60 63 64 64 29 29 55 47 53 41 17 38 48 72 68 82 107 125 128 100 99 86 101 140 167 180 189 195 134 115 114 67 60 32 16
0 10 20 17 40 35 45 51 53 40 56 99 98 90 102 98 84 64 67 52 62 64 97 115 114 77 75 81 61 84 95 57 39 50 36 42 48 51 21 33 61 40 61 114 95 109 108 107 102 82 80 77 101 144 170 169 184 132 135 86 72 27 36 21
0 3 4 4 1 25 11 48 39 55 43 61 72 92 69 83 67 53 89 66 88 77 103 124 113 110 104 84 69 54 57 60 46 70 77 37 55 45 40 32 39 70 83 83 108 110 112 95 107 75 73 113 110 106 144 133 163 118 108 78 63 44 36 3
8 4 6 22 23 34 26 45 42 51 40 52 65 82 59 62 62 79 73 96 84 126 112 131 125 95 100 82 76 51 35 46 75 63 52 72 54 36 46 45 61 39 66 66 80 79 86 99 68 64 74 60 94 89 108 143 114 123 86 88 61 72 27 36
8 1 22 18 17 29 40 16 29 19 35 41 46 38 39 61 41 65 61 67 88 122 135 115 125 99 85 98 82 53 75 60 67 89 78 68 66 67 60 51 39 56 59 48 75 50 62 72 67 52 55 53 40 78 91 94 79 104 84 101 68 67 46 19
0 22 21 34 37 34 38 25 54 19 51 49 17 33 46 54 60 72 44 100 106 128 134 152 117 116 94 73 53 46 53 85 79 84 65 65 77 55 69 37 29 19 53 41 32 34 31 39 73 58 19 41 74 76 86 101 61 48 53 75 78 72 43 29
23 17 34 43 35 13 46 27 42 42 33 32 30 27 29 54 54 63 70 89 103 117 135 133 138 121 115 66 78 62 59 61 54 71 92 82 66 68 53 47 44 32 45 34 45 40 48 27 43 22 42 33 50 58 69 74 36 82 68 42 70 52 36 5
45 70 52 52 52 40 32 36 39 23 38 31 38 42 31 40 60 58 75 100 104 119 104 149 111 110 128 104 72 75 48 79 86 71 82 67 89 67 26 59 38 49 30 34 41 35 50 29 30 29 31 46 56 65 54 72 63 39 49 62 37 37 23 18
58 43 91 58 51 40 59 42 33 33 32 29 26 45 51 32 33 66 48 80 108 109 133 137 131 139 115 102 99 69 66 44 68 71 68 64 80 85 59 41 31 37 8 35 66 41 65 23 41 30 64 61 55 63 78 71 52 39 36 16 15 15 15 31
61 41 83 73 43 45 51 55 55 36 29 60 55 28 60 49 70 47 90 89 117 147 138 157 127 140 135 96 50 50 46 41 70 77 79 99 61 94 62 45 60 54 46 44 51 41 46 54 67 53 33 55 64 78 53 52 39 52 28 33 43 27 4 0
39 61 51 56 66 63 62 58 43 29 37 21 52 65 66 35 52 83 74 100 132 148 139 146 134 124 122 80 72 78 63 87 77 90 91 92 78 64 60 68 60 42 60 56 43 47 68 48 48 84 21 48 58 76 56 61 37 57 67 43 26 19 0 7
34 57 52 29 51 51 72 39 35 44 45 32 41 37 70 46 75 80 87 121 130 167 162 187 144 125 96 91 66 57 58 65 83 78 79 88 84 58 66 34 44 34 61 62 72 72 38 83 65 72 57 63 66 57 67 52 83 46 36 39 32 4 20 6
14 35 29 67 41 46 57 58 31 37 44 21 38 19 47 38 34 98 117 131 155 218 211 203 171 144 116 92 71 67 49 39 83 95 107 96 94 73 45 47 46 46 56 60 84 69 74 67 76 88 77 56 53 41 49 45 56 86 30 45 42 23 12 4
19 30 49 53 53 82 75 57 61 37 9 36 39 34 53 63 62 104 119 162 175 210 245 217 195 145 109 96 90 56 54 42 66 70 98 88 56 59 68 59 57 50 85 62 77 62 70 76 73 84 71 92 52 45 40 55 33 59 48 33 57 34 19 26
25 36 46 95 63 124 145 106 83 56 50 41 49 48 52 53 79 100 122 153 186 220 255 246 200 157 135 80 88 90 68 107 85 67 84 79 70 68 46 39 50 81 53 61 75 81 60 98 113 70 64 69 83 65 50 56 13 27 28 43 49 67 40 9
27 57 63 106 87 105 122 118 106 77 44 69 21 50 52 69 72 107 139 140 177 215 238 244 177 145 119 97 79 64 73 86 122 97 105 102 60 66 51 44 27 52 54 104 75 103 101 84 106 116 90 77 94 84 81 51 20 53 53 63 58 57 45 9
19 60 72 108 119 103 119 132 113 85 84 55 41 59 61 87 105 97 146 167 176 196 196 188 172 130 115 105 104 94 99 85 113 147 116 104 74 69 59 52 34 84 91 78 101 93 102 107 112 90 87 66 55 53 46 25 26 27 34 41 76 71 35 35
38 48 58 81 89 87 128 111 119 98 86 54 56 54 50 86 122 142 141 150 166 147 140 144 151 127 108 105 84 65 104 108 128 141 105 105 75 66 47 49 60 74 74 108 104 130 134 143 141 116 94 60 46 26 52 15 21 56 46 80 84 71 70 39
16 44 46 60 64 65 76 104 109 102 98 71 66 70 72 92 103 149 154 131 135 148 126 139 116 100 120 87 75 71 82 91 109 117 121 92 88 64 34 51 79 92 100 112 115 128 155 146 149 119 99 49 41 20 14 26 28 30 47 104 77 90 59 48
32 44 23 35 55 75 61 75 90 92 112 59 63 72 58 76 79 122 112 111 120 100 126 107 112 94 100 107 79 63 82 113 112 126 96 66 73 50 57 47 69 80 124 116 129 132 106 126 121 82 88 71 4 18 30 0 39 45 49 83 78 88 47 31
29 53 34 33 37 56 73 64 100 97 103 67 58 52 73 72 73 86 102 96 107 101 89 104 94 84 81 77 82 67 86 58 93 88 89 84 59 48 49 43 66 120 126 141 129 121 122 115 106 97 70 46 14 16 5 22 11 45 41 74 55 38 42 11
14 45 61 59 38 57 89 99 96 109 98 97 90 78 41 47 87 86 76 109 88 105 99 103 82 63 48 41 50 26 35 59 63 84 76 45 39 30 52 48 84 104 120 105 131 125 103 89 96 89 71 42 37 3 22 13 8 24 17 57 40 35 20 38
27 47 64 71 91 75 94 115 107 88 104 89 93 103 82 69 55 74 88 93 110 95 113 106 76 95 84 39 23 33 31 51 38 33 44 29 41 24 58 72 74 89 113 129 98 109 111 99 86 67 72 37 51 26 42 34 21 6 0 24 29 16 14 3
51 56 55 69 81 108 136 106 111 113 104 105 85 88 59 89 67 92 97 121 127 112 89 89 70 84 55 26 22 35 20 37 34 32 26 43 31 54 60 51 58 51 75 94 88 93 97 112 80 73 86 51 44 36 43 0 2 23 16 18 0 0 16 0
61 70 74 63 79 87 118 109 127 118 127 104 101 117 82 71 67 92 71 121 112 115 109 105 70 69 51 36 40 0 7 10 16 43 27 8 57 55 50 78 46 67 96 102 100 100 122 86 80 95 90 75 82 63 74 48 35 24 14 0 0 0 0 0
69 56 78 77 95 106 106 125 117 150 123 106 76 88 94 92 77 89 105 129 122 126 111 95 67 68 19 25 32 0 9 8 0 30 24 30 38 83 72 85 89 73 100 107 83 108 95 108 84 104 92 89 88 59 45 44 37 47 15 7 2 0 13 0
32 43 62 77 100 90 115 107 143 123 114 138 98 92 96 105 89 106 119 89 149 129 97 99 56 34 35 16 12 0 0 34 19 23 35 50 61 76 104 107 116 95 88 94 98 102 88 76 92 102 127 101 84 67 56 55 66 45 23 38 0 1 4 13
32 51 41 72 77 85 88 125 151 110 135 112 110 96 84 93 90 87 122 146 114 136 117 78 80 55 45 22 45 54 17 24 35 30 44 63 85 87 88 109 112 105 125 104 89 104 80 102 94 104 71 83 88 60 69 84 54 39 6 23 11 33 42 21
42 38 56 71 63 55 85 125 126 129 147 137 117 109 88 100 110 110 105 119 120 125 116 96 77 61 47 56 51 42 32 22 13 26 30 53 71 82 100 102 131 121 115 115 100 100 78 93 82 74 64 78 83 78 103 75 72 69 71 56 45 36 36 43
27 48 45 43 42 88 68 102 127 141 167 146 146 120 108 87 66 125 72 118 112 125 98 71 54 56 60 58 63 68 32 41 27 24 22 70 54 87 120 112 119 141 94 108 101 85 116 89 67 50 45 75 110 79 81 85 70 90 100 62 61 41 27 15
18 25 31 30 41 50 56 77 101 119 143 136 112 114 94 77 89 87 105 105 99 84 65 77 70 45 39 46 97 71 40 27 24 32 35 34 63 58 93 119 126 102 96 110 59 105 91 86 33 57 73 72 68 118 139 122 111 107 103 111 96 76 50 37
51 11 27 15 41 35 46 55 91 93 113 125 112 75 76 85 77 72 83 67 73 77 53 43 34 46 69 46 59 52 49 12 9 24 24 29 76 65 71 91 77 85 91 83 89 104 97 63 51 44 48 90 108 141 159 145 148 172 170 153 123 106 83 58
31 40 29 25 10 5 42 15 77 49 83 73 72 56 51 42 43 48 54 76 48 38 48 41 41 37 27 10 1 20 43 3 0 10 3 22 37 64 62 79 66 89 81 87 76 58 76 47 48 30 62 87 122 137 150 149 139 197 206 183 143 107 94 51
15 50 31 32 0 5 20 30 16 31 69 36 59 16 50 38 42 32 29 10 39 37 40 19 11 24 30 0 22 5 19 0 6 29 5 23 47 57 85 54 62 66 75 64 87 68 84 79 63 69 76 74 95 117 150 142 147 197 194 191 180 147 111 75
53 55 62 37 0 24 19 25 20 40 35 15 22 19 27 7 15 19 30 15 12 22 33 29 0 9 0 0 0 13 5 3 10 31 3 11 33 46 50 59 56 83 53 69 83 91 87 108 82 56 84 111 117 138 153 165 146 192 234 211 179 172 112 83
54 52 25 29 33 10 14 0 10 0 0 17 26 17 0 0 19 7 18 0 17 21 0 27 0 30 6 4 0 27 10 3 19 28 15 27 24 28 54 77 90 69 99 91 102 118 97 94 101 95 100 91 106 146 162 159 166 191 228 228 213 174 146 91
33 27 22 29 19 29 40 20 32 0 7 0 11 24 25 10 19 12 1 0 6 16 1 0 0 13 13 0 3 2 6 35 29 59 38 29 32 16 56 74 85 101 111 119 114 168 147 145 124 95 99 100 124 145 144 178 210 233 231 247 214 188 162 80
16 18 27 36 49 39 61 40 14 17 20 17 8 0 10 18 11 18 1 19 8 0 16 0 0 17 17 2 0 3 3 38 33 89 78 50 57 57 68 93 100 134 145 168 169 161 182 157 152 158 148 148 129 143 160 203 205 223 221 224 201 184 142 130
0 6 28 53 60 62 61 39 28 27 35 18 22 0 35 23 31 0 4 0 33 15 26 19 24 9 0 0 0 0 35 29 75 98 80 75 50 92 89 129 120 177 187 190 197 180 202 166 153 120 124 142 164 187 182 179 203 205 228 205 193 164 131 105
5 19 40 43 86 70 57 61 60 42 45 32 44 34 15 10 26 4 18 0 34 26 33 35 26 31 6 16 13 0 14 24 44 85 89 69 47 61 117 134 158 207 219 242 215 230 181 166 161 164 162 158 174 158 211 194 186 184 156 188 143 121 121 77
0 29 40 41 65 64 54 58 27 35 43 49 42 57 22 49 22 24 38 18 31 33 52 33 41 32 20 10 15 21 0 22 45 40 45 38 58 96 117 127 174 218 240 251 238 229 200 170 152 145 148 149 162 165 176 172 146 187 181 137 119 124 99 66
0 24 33 37 55 62 47 65 59 72 66 69 66 64 53 46 50 22 38 43 58 76 69 99 79 61 13 28 22 7 0 11 7 31 11 38 50 87 114 143 194 211 252 244 208 217 189 168 148 135 134 126 138 151 152 150 140 134 125 131 141 115 119 60
12 26 32 38 41 74 80 53 93 84 65 80 81 89 80 53 36 39 15 64 86 104 102 109 111 53 33 29 7 24 0 30 16 29 32 30 56 79 122 146 180 231 223 255 228 218 188 119 138 92 116 101 94 117 121 125 117 121 98 96 107 107 80 78
3 11 14 25 43 84 72 80 90 69 83 88 79 80 45 72 60 47 39 73 91 105 129 116 123 98 67 48 22 25 13 26 33 43 40 69 52 85 120 149 184 211 228 215 205 190 144 141 111 106 98 62 71 73 81 84 88 85 77 81 67 42 84 64
11 13 27 39 56 79 91 103 91 83 88 52 74 83 61 43 50 58 61 48 82 118 141 107 94 83 68 49 13 36 36 36 44 39 51 40 58 63 118 146 174 170 192 173 181 147 138 85 78 68 68 56 74 39 50 66 71 76 54 57 76 80 59 59
14 16 30 35 50 66 86 73 97 84 66 72 74 75 67 48 77 23 67 52 74 101 141 117 115 75 58 36 17 9 44 59 61 32 60 54 98 83 104 114 147 158 159 138 136 114 107 71 73 35 22 52 29 34 43 36 18 41 37 42 41 38 59 45
1 19 39 26 63 58 71 61 67 89 89 59 84 93 50 56 61 36 33 73 62 75 99 105 88 84 74 33 11 0 36 26 25 20 34 55 89 87 94 111 132 129 134 98 84 115 74 72 42 34 10 8 33 11 24 14 61 30 32 16 41 57 60 68
