P2
# smooth64 size=64 hills=8 sigma=[8.0,16.0] noise=0.0 seed=11
64 64
255
51 53 54 56 57 58 59 59 60 60 61 61 61 61 61 61 61 61 61 61 60 60 60 59 59 58 57 56 55 54 52 50 49 47 45 44 42 40 39 38 37 37 36 37 37 38 39 40 42 44 46 48 50 52 54 56 57 58 59 60 60 59 58 57
56 58 60 61 63 64 65 65 66 66 66 66 66 66 66 66 66 66 66 66 66 65 65 65 64 63 62 61 60 58 57 55 53 51 49 48 46 44 43 42 41 41 41 41 42 43 44 46 48 50 52 55 57 60 62 64 66 67 68 69 69 68 67 66
61 63 65 67 68 69 70 71 71 72 72 72 72 72 72 72 72 72 71 71 71 71 70 70 69 68 67 66 64 63 61 59 57 55 53 52 50 48 47 46 45 45 45 45 46 47 49 51 54 56 59 62 65 68 70 73 75 76 78 78 78 78 77 75
66 68 70 72 74 75 76 76 77 77 77 77 77 77 77 77 77 77 77 76 76 76 75 74 74 73 72 70 69 67 65 63 61 59 57 55 54 52 51 50 49 49 49 50 51 53 55 57 60 63 66 70 73 76 79 82 85 86 88 89 89 88 87 85
70 73 75 77 79 80 81 82 82 83 83 83 83 82 82 82 82 82 81 81 81 80 80 79 78 77 76 75 73 71 69 67 65 63 61 59 57 56 55 54 53 53 53 54 56 58 60 63 66 70 74 78 82 85 89 92 95 97 99 100 100 99 98 95
75 78 80 82 84 85 86 87 87 88 88 88 87 87 87 87 87 86 86 86 85 85 84 83 82 81 80 79 77 75 73 71 69 67 65 63 61 59 58 57 57 57 58 59 61 63 66 69 73 77 82 86 91 95 99 103 106 109 110 111 111 111 109 107
79 82 84 86 88 89 91 91 92 92 92 92 92 92 91 91 91 90 90 90 89 89 88 87 86 85 84 82 80 79 77 74 72 70 68 66 64 63 62 61 61 61 62 64 66 69 72 76 80 85 90 95 100 105 110 114 118 120 123 124 124 123 121 118
83 85 88 90 92 93 95 95 96 96 96 96 96 95 95 95 94 94 94 93 93 92 91 91 90 88 87 85 84 82 80 77 75 73 71 69 67 66 65 64 64 65 66 68 71 74 78 82 87 93 99 104 110 116 121 126 130 133 135 136 137 136 134 131
86 89 91 94 95 97 98 99 99 99 99 99 99 99 98 98 98 97 97 96 96 95 94 93 92 91 90 88 86 84 82 80 78 76 73 71 70 68 68 67 68 68 70 72 75 79 84 89 95 101 107 114 120 126 132 137 142 146 148 150 150 149 147 143
88 91 94 96 98 100 101 101 102 102 102 102 102 101 101 100 100 100 99 98 98 97 96 96 94 93 92 90 88 86 84 82 80 78 76 74 72 71 70 70 71 72 74 76 80 84 90 95 102 109 116 123 130 137 144 149 154 158 161 163 163 162 160 156
90 93 96 98 100 102 103 103 104 104 104 104 104 103 103 102 102 101 101 100 100 99 98 97 96 95 93 92 90 88 86 84 81 79 77 75 74 73 72 72 73 75 77 80 84 89 95 102 109 116 124 132 140 148 155 161 167 171 174 176 176 175 172 168
91 94 97 99 101 103 104 105 105 105 105 105 105 104 104 103 103 102 102 101 101 100 99 98 97 96 94 93 91 89 87 85 82 80 78 77 75 74 74 74 76 77 80 84 88 94 100 108 115 124 132 141 150 158 166 173 179 184 187 189 189 188 185 181
91 95 97 100 102 103 104 105 106 106 106 105 105 105 104 104 103 103 102 102 101 100 99 98 97 96 95 93 91 89 87 85 83 81 79 77 76 76 75 76 77 80 83 87 92 98 105 113 122 131 140 150 159 168 177 184 191 196 200 202 202 201 197 193
91 94 97 99 101 103 104 105 105 105 105 105 105 104 104 103 103 102 102 101 100 100 99 98 97 96 94 93 91 89 87 85 83 81 79 78 77 76 76 77 79 81 85 90 95 102 110 118 127 137 147 158 168 178 187 195 202 207 211 213 214 212 209 204
90 93 96 98 100 102 103 104 104 104 104 104 104 103 103 102 102 101 101 100 99 99 98 97 96 95 93 92 90 88 86 84 82 80 79 78 77 76 77 78 80 83 87 92 98 105 114 123 133 143 154 165 176 186 196 205 212 218 222 224 225 223 219 214
88 92 94 97 98 100 101 102 102 102 102 102 102 101 101 100 100 99 99 98 98 97 96 95 94 93 92 90 89 87 85 83 81 79 78 77 76 76 77 78 80 84 88 94 100 108 117 127 137 148 160 171 183 194 204 213 221 227 232 234 234 232 229 223
86 89 92 94 96 97 98 99 99 100 100 99 99 99 98 98 97 97 96 96 95 95 94 93 92 91 90 88 87 85 83 81 80 78 77 76 75 75 76 78 80 84 89 95 102 110 119 130 141 152 164 177 189 200 211 220 229 235 239 242 242 240 236 230
83 86 89 91 93 94 95 96 96 96 96 96 96 96 95 95 94 94 93 93 92 92 91 90 89 88 87 86 84 83 81 79 78 76 75 74 74 74 75 77 80 84 89 95 103 111 121 132 143 155 168 181 193 205 216 226 234 241 246 248 249 247 242 236
80 82 85 87 89 90 91 92 92 92 92 92 92 92 91 91 91 90 90 90 89 89 88 87 86 85 84 83 81 80 78 77 75 74 73 72 72 73 74 76 79 83 88 95 103 112 122 133 145 157 170 183 196 208 220 230 239 245 250 253 253 251 246 240
76 78 81 83 84 86 87 87 88 88 88 88 88 88 87 87 87 86 86 86 85 85 84 84 83 82 81 80 78 77 75 74 73 71 71 70 70 71 72 74 78 82 87 94 102 111 122 133 145 158 171 184 198 210 222 232 241 247 252 255 255 253 248 242
71 74 76 78 80 81 82 83 83 83 83 83 83 83 83 83 82 82 82 82 81 81 80 80 79 78 77 76 75 74 72 71 70 69 68 67 68 68 70 72 76 80 86 93 101 110 121 132 144 157 171 184 197 210 221 232 241 248 252 255 255 253 248 241
67 69 71 73 75 76 77 78 78 78 78 79 78 78 78 78 78 78 78 77 77 77 76 76 75 74 73 72 71 70 69 68 67 66 65 65 65 66 68 70 74 78 84 91 99 108 119 130 142 155 169 182 195 208 219 230 239 245 250 253 253 250 246 239
62 64 66 68 69 71 72 72 73 73 73 73 73 73 73 73 73 73 73 73 73 72 72 72 71 70 70 69 68 67 65 64 63 63 62 62 62 63 65 67 71 76 81 88 96 106 116 127 139 152 165 179 192 204 216 226 234 241 246 248 248 246 241 234
57 59 61 63 64 65 66 67 67 68 68 68 68 68 68 68 68 68 68 68 68 68 68 67 67 66 66 65 64 63 62 61 60 59 59 59 59 60 62 65 68 73 78 85 93 102 112 123 135 148 161 174 187 199 210 220 228 235 239 241 241 239 234 228
52 54 56 57 59 60 61 61 62 62 63 63 63 63 63 63 64 64 64 64 64 64 64 63 63 62 62 61 60 59 59 58 57 56 56 56 56 57 59 62 65 70 75 82 89 98 108 119 130 143 155 168 180 192 202 212 220 226 231 233 233 230 226 219
47 49 51 52 53 54 55 56 57 57 57 58 58 58 58 59 59 59 59 59 59 59 59 59 59 59 58 58 57 56 55 54 54 53 53 53 54 55 56 59 62 66 72 78 85 94 103 114 125 136 148 160 172 183 193 203 210 216 220 222 222 220 215 209
42 44 45 47 48 49 50 51 51 52 52 53 53 53 54 54 54 55 55 55 55 55 55 55 55 55 55 54 53 53 52 51 51 50 50 50 51 52 53 56 59 63 68 74 81 89 98 108 118 129 140 152 163 173 183 192 199 205 208 210 210 208 204 198
37 39 41 42 43 44 45 46 46 47 47 48 48 49 49 50 50 50 51 51 51 52 52 52 52 52 51 51 50 50 49 49 48 48 47 48 48 49 50 53 56 59 64 70 76 84 92 101 111 121 132 143 153 163 172 180 187 192 195 197 197 195 191 185
33 34 36 37 38 39 40 41 42 42 43 43 44 45 45 46 46 47 47 48 48 48 48 49 49 49 48 48 48 47 47 46 46 45 45 45 46 46 48 50 52 56 60 65 71 78 86 95 104 113 123 133 142 151 160 167 173 178 181 183 182 180 177 171
29 30 31 33 34 35 36 36 37 38 39 39 40 41 41 42 42 43 44 44 45 45 45 46 46 46 46 46 45 45 44 44 43 43 43 43 43 44 45 47 50 53 57 61 67 73 80 88 96 105 114 123 131 140 147 154 160 164 167 168 168 166 162 157
25 26 27 29 30 31 31 32 33 34 35 35 36 37 38 38 39 40 41 41 42 42 43 43 43 43 43 43 43 43 42 42 42 41 41 41 41 42 43 45 47 50 53 57 62 68 74 81 89 96 104 112 120 128 135 141 146 149 152 153 152 151 147 143
21 23 24 25 26 27 28 29 29 30 31 32 33 34 34 35 36 37 38 39 39 40 40 41 41 41 42 42 41 41 41 40 40 40 40 40 40 40 41 43 44 47 50 54 58 63 68 75 81 88 95 102 109 116 122 127 132 135 137 138 137 136 133 128
18 19 20 21 22 23 24 25 26 27 28 29 30 31 32 33 34 35 36 36 37 38 39 39 40 40 40 40 40 40 40 39 39 39 39 38 39 39 40 41 42 44 47 50 54 58 63 68 74 80 86 93 99 104 110 114 118 121 123 123 123 121 118 114
15 16 17 18 19 20 21 22 23 24 25 26 27 28 29 30 32 33 34 35 36 36 37 38 38 39 39 39 39 39 39 39 38 38 38 38 38 38 39 39 41 42 44 47 50 54 58 63 68 73 78 83 89 93 98 102 105 107 109 109 109 107 104 101
13 14 15 16 17 18 19 20 21 22 23 24 25 26 27 29 30 31 32 33 34 35 36 37 37 38 38 38 39 39 38 38 38 38 37 37 37 37 38 38 39 41 42 45 47 50 54 57 62 66 70 75 79 83 87 90 93 95 96 96 95 94 91 88
10 11 12 13 14 15 16 17 18 20 21 22 23 24 26 27 28 30 31 32 33 34 35 36 37 37 38 38 38 38 38 38 38 38 37 37 37 37 37 38 38 39 41 42 45 47 50 53 56 60 63 67 71 74 77 80 82 83 84 84 83 82 79 77
8 9 10 11 12 13 14 15 17 18 19 20 22 23 25 26 27 29 30 31 33 34 35 36 37 37 38 38 39 39 39 39 38 38 38 38 37 37 37 38 38 39 40 41 42 44 46 49 52 54 57 60 63 66 68 70 72 73 73 73 72 71 69 66
7 8 9 10 11 12 13 14 15 16 18 19 21 22 24 25 27 28 30 31 33 34 35 36 37 38 38 39 39 39 39 39 39 39 39 38 38 38 38 38 38 38 39 40 41 42 44 46 48 50 52 54 56 58 60 62 63 63 63 63 62 61 59 56
5 6 7 8 9 10 11 13 14 15 17 18 20 21 23 25 26 28 30 31 33 34 35 36 37 38 39 39 40 40 40 40 40 40 40 39 39 39 38 38 38 38 39 39 40 41 42 43 45 46 48 49 51 52 53 54 55 55 55 54 53 52 50 48
4 5 6 7 8 9 10 12 13 14 16 18 19 21 23 24 26 28 30 31 33 34 36 37 38 39 40 41 41 41 41 41 41 41 41 40 40 40 39 39 39 39 39 39 40 40 41 41 42 43 44 45 46 47 48 48 48 48 48 47 46 44 43 41
3 4 5 6 7 8 9 11 12 14 15 17 19 21 23 25 26 28 30 32 34 35 37 38 39 40 41 42 42 43 43 43 43 43 42 42 42 41 41 40 40 40 40 40 40 40 40 40 41 41 42 42 42 43 43 43 43 42 42 41 40 38 36 34
2 3 4 5 6 8 9 10 12 13 15 17 19 21 23 25 27 29 31 33 35 36 38 39 41 42 43 43 44 44 45 45 45 44 44 44 43 43 42 42 42 41 41 40 40 40 40 40 40 40 40 40 40 40 39 39 38 38 37 36 34 33 31 29
2 3 3 5 6 7 8 10 12 13 15 17 19 21 23 25 28 30 32 34 36 38 39 41 42 43 44 45 46 46 47 47 47 46 46 46 45 45 44 44 43 43 42 42 41 41 40 40 39 39 39 38 38 37 37 36 35 34 33 32 30 29 27 25
1 2 3 4 5 7 8 10 11 13 15 17 19 22 24 26 29 31 33 35 37 39 41 43 44 45 46 47 48 48 49 49 49 49 48 48 48 47 46 46 45 45 44 43 42 42 41 40 40 39 38 38 37 36 35 34 33 31 30 29 27 25 24 22
1 2 3 4 5 7 8 10 12 13 16 18 20 22 25 27 30 32 34 37 39 41 43 44 46 47 48 49 50 51 51 51 51 51 51 50 50 49 49 48 47 47 46 45 44 43 42 41 40 39 38 37 36 35 34 32 31 30 28 26 25 23 21 19
0 1 2 4 5 6 8 10 12 14 16 18 21 23 26 28 31 34 36 38 41 43 45 47 48 50 51 52 52 53 53 53 53 53 53 53 52 52 51 50 50 49 48 47 46 45 44 43 42 40 39 38 36 35 33 32 30 28 27 25 23 21 19 17
0 1 2 4 5 7 8 10 12 14 17 19 22 24 27 30 33 35 38 40 43 45 47 49 51 52 53 54 55 55 56 56 56 56 56 55 55 54 54 53 52 51 50 49 48 47 46 44 43 42 40 38 37 35 33 31 30 28 26 24 22 20 18 16
0 1 2 4 5 7 8 10 13 15 17 20 23 26 28 31 34 37 40 43 45 47 50 52 53 55 56 57 58 58 58 59 59 58 58 58 57 57 56 55 54 54 53 51 50 49 48 46 45 43 41 40 38 36 34 32 30 28 25 23 21 19 17 15
0 1 2 4 5 7 9 11 13 16 18 21 24 27 30 33 36 39 42 45 48 50 52 54 56 57 59 60 60 61 61 61 61 61 61 60 60 59 58 58 57 56 55 54 53 51 50 48 47 45 43 41 39 37 35 32 30 28 26 23 21 19 17 15
0 1 2 4 5 7 9 11 14 16 19 22 25 28 32 35 38 41 44 47 50 53 55 57 59 60 61 62 63 64 64 64 64 64 63 63 62 62 61 60 59 58 57 56 55 53 52 50 48 47 45 42 40 38 36 33 31 28 26 24 21 19 17 15
0 1 2 4 6 7 10 12 14 17 20 23 27 30 33 37 40 44 47 50 53 56 58 60 62 63 64 65 66 66 66 66 66 66 66 65 65 64 63 62 62 61 59 58 57 55 54 52 50 48 46 44 42 39 37 34 32 29 26 24 22 19 17 15
0 1 3 4 6 8 10 13 15 18 21 25 28 32 35 39 43 46 50 53 56 59 61 63 65 66 67 68 69 69 69 69 69 68 68 67 67 66 65 65 64 63 62 60 59 57 56 54 52 50 48 46 43 41 38 35 33 30 27 25 22 19 17 15
0 1 3 4 6 8 11 13 16 19 22 26 30 33 37 41 45 49 52 56 59 62 64 66 68 69 70 71 72 72 72 72 71 71 70 70 69 68 67 66 66 65 63 62 61 59 58 56 54 52 49 47 44 42 39 36 34 31 28 25 23 20 17 15
0 1 3 5 6 9 11 14 17 20 24 27 31 35 39 43 47 51 55 58 62 65 67 69 71 72 73 74 74 74 74 74 73 73 72 71 71 70 69 68 67 66 65 64 62 61 59 57 55 53 51 48 46 43 40 37 35 32 29 26 23 20 18 15
0 2 3 5 7 9 12 15 18 21 25 29 33 37 41 45 50 54 58 61 65 68 70 72 74 75 76 77 77 77 76 76 75 75 74 73 72 71 70 70 69 68 66 65 64 62 61 59 57 55 52 50 47 44 41 38 35 32 29 26 24 21 18 16
0 2 3 5 7 9 12 15 18 22 26 30 34 39 43 48 52 56 60 64 67 70 73 75 77 78 79 79 79 79 79 78 77 76 75 74 74 73 72 71 70 69 67 66 65 63 62 60 58 56 53 51 48 45 42 39 36 33 30 27 24 21 19 16
0 2 3 5 7 10 13 16 19 23 27 31 36 40 45 49 54 58 63 66 70 73 75 78 79 80 81 81 81 81 80 79 79 78 77 75 74 73 72 71 70 69 68 67 66 64 62 61 58 56 54 51 49 46 43 40 37 34 30 27 24 22 19 16
0 2 3 5 8 10 13 16 20 24 28 32 37 42 46 51 56 60 65 69 72 75 78 80 81 82 83 83 83 82 82 81 80 78 77 76 75 74 73 72 71 70 68 67 66 64 63 61 59 57 54 52 49 46 43 40 37 34 31 28 25 22 19 16
0 2 4 5 8 10 13 17 20 24 29 33 38 43 48 53 58 62 66 70 74 77 80 82 83 84 85 85 84 84 83 81 80 79 78 76 75 74 73 72 71 70 68 67 66 64 63 61 59 57 54 52 49 46 43 40 37 34 31 28 25 22 19 17
0 2 4 6 8 11 14 17 21 25 29 34 39 44 49 54 59 63 68 72 75 79 81 83 84 85 86 86 85 84 83 82 80 79 78 76 75 74 72 71 70 69 68 67 65 64 62 61 59 56 54 52 49 46 43 40 37 34 31 28 25 22 19 16
0 2 4 6 8 11 14 17 21 25 30 34 39 44 49 55 60 64 69 73 76 79 82 84 85 86 86 86 85 84 83 82 80 79 77 76 74 73 72 70 69 68 67 66 65 63 62 60 58 56 53 51 48 46 43 40 37 34 30 27 25 22 19 16
0 2 3 6 8 11 14 17 21 25 30 34 39 45 50 55 60 65 69 73 77 80 82 84 85 86 86 86 85 84 82 81 79 78 76 75 73 72 70 69 68 67 66 65 63 62 60 59 57 55 53 50 48 45 42 39 36 33 30 27 24 21 19 16
0 2 3 5 8 10 14 17 21 25 30 34 39 44 50 55 60 65 69 73 77 79 82 84 85 85 85 85 84 83 81 80 78 76 75 73 71 70 69 67 66 65 64 63 62 60 59 57 55 53 51 49 46 44 41 38 35 32 29 26 24 21 18 16
0 1 3 5 8 10 13 17 21 25 29 34 39 44 49 54 59 64 68 72 76 78 81 82 84 84 84 83 82 81 80 78 76 74 73 71 69 68 67 65 64 63 62 61 60 58 57 55 54 52 50 47 45 42 40 37 34 31 28 26 23 20 18 15
